img/users/yoctol.ai.svg

<svg width="162" height="162" viewBox="0 0 162 162" fill="none" xmlns="http://www.w3.org/2000/svg">
<path fill-rule="evenodd" clip-rule="evenodd" d="M81 161C125.183 161 161 125.183 161 81C161 36.8172 125.183 1 81 1C36.8172 1 1 36.8172 1 81C1 125.183 36.8172 161 81 161Z" fill="white" stroke="#E9EEF4"/>
<path fill-rule="evenodd" clip-rule="evenodd" d="M81.2809 22.3333C81.2808 22.3333 81.2808 22.3333 81.2807 22.3333C80.4485 22.3333 79.6162 22.5535 78.8706 22.9937C69.5348 28.5085 61.7049 36.4392 56.2268 45.9277C50.5808 55.7079 47.5967 66.9097 47.5967 78.3215C47.5967 87.4424 49.4419 96.253 53.0808 104.508C56.5948 112.481 61.5915 119.527 67.9324 125.453C67.9506 125.47 67.9838 125.502 68.003 125.521C68.0109 125.529 68.0164 125.534 68.0176 125.536C68.0194 125.537 68.0208 125.539 68.023 125.541C68.0084 125.554 67.9941 125.567 67.9816 125.578C67.9292 125.623 67.8771 125.67 67.8269 125.718C66.5043 126.89 65.1115 128.005 63.6853 129.036C63.6496 129.062 63.6139 129.088 63.5786 129.115C62.0179 130.27 61.0962 132.102 61.0962 134.086C61.0962 137.473 63.7947 140.228 67.1119 140.228C67.6939 140.228 68.2701 140.142 68.8274 139.972C73.1363 138.778 77.3139 137.109 81.2809 134.999V22.3333Z" fill="url(#paint0_linear)"/>
<path fill-rule="evenodd" clip-rule="evenodd" d="M68.0177 125.697L68.0031 125.683L68.0031 125.683C67.9869 125.667 67.9606 125.641 67.9419 125.623M68.0194 125.699C68.019 125.699 68.0187 125.698 68.0183 125.698C68.0198 125.699 68.0211 125.701 68.023 125.703C68.0216 125.701 68.0205 125.7 68.0194 125.699ZM81.281 135.175C82.0632 134.759 82.8371 134.325 83.6023 133.874C83.6323 133.857 83.6615 133.84 83.6907 133.823C93.0265 128.3 100.856 120.356 106.334 110.853C111.98 101.057 114.965 89.8382 114.965 78.4092C114.965 66.9795 111.98 55.7606 106.334 45.9647C100.857 36.4614 93.0265 28.5182 83.6907 22.9948C82.9452 22.554 82.1131 22.3334 81.281 22.3334V135.175Z" fill="url(#paint1_linear)"/>
<path fill-rule="evenodd" clip-rule="evenodd" d="M109.912 52.8458L81.2808 81.2806V22.3333C82.1149 22.3333 82.949 22.5525 83.6963 22.9907C93.0538 28.4804 100.902 36.375 106.393 45.8204C107.712 48.0904 108.887 50.4373 109.912 52.8458Z" fill="#ECF6FE"/>
<defs>
<linearGradient id="paint0_linear" x1="52.0211" y1="53.3039" x2="52.0211" y2="140.228" gradientUnits="userSpaceOnUse">
<stop stop-color="#13BDFF"/>
<stop offset="1" stop-color="#3F83FF"/>
</linearGradient>
<linearGradient id="paint1_linear" x1="73.4483" y1="48.7611" x2="73.4483" y2="135.175" gradientUnits="userSpaceOnUse">
<stop stop-color="#D8EDFF"/>
<stop offset="1" stop-color="#8DC9FF"/>
</linearGradient>
</defs>
</svg>

<svg width="162" height="162" viewBox="0 0 162 162" fill="none" xmlns="http://www.w3.org/2000/svg"><path fill-rule="evenodd" clip-rule="evenodd" d="M81 161c44.183 0 80-35.817 80-80S125.183 1 81 1 1 36.817 1 81s35.817 80 80 80z" fill="#fff" stroke="#E9EEF4"/><path fill-rule="evenodd" clip-rule="evenodd" d="M81.28 22.333c-.832 0-1.664.22-2.41.66-9.335 5.516-17.165 13.446-22.643 22.935-5.646 9.78-8.63 20.982-8.63 32.394 0 9.12 1.845 17.931 5.484 26.186a63.62 63.62 0 0014.922 21.013l.015.015.005.005-.041.037a53.731 53.731 0 01-4.296 3.458l-.107.079a6.156 6.156 0 00-2.483 4.971c0 3.387 2.699 6.142 6.016 6.142a5.87 5.87 0 001.715-.256 61.505 61.505 0 0012.454-4.973V22.333z" fill="url(#paint0_linear)"/><path fill-rule="evenodd" clip-rule="evenodd" d="M68.018 125.697l-.015-.014-.061-.06m.077.076v-.001l.004.005-.004-.004zm13.262 9.476c.782-.416 1.556-.85 2.321-1.301l.089-.051c9.335-5.523 17.165-13.467 22.643-22.97 5.646-9.796 8.631-21.015 8.631-32.444 0-11.43-2.985-22.648-8.631-32.444-5.477-9.504-13.308-17.447-22.643-22.97a4.73 4.73 0 00-2.41-.662v112.842z" fill="url(#paint1_linear)"/><path fill-rule="evenodd" clip-rule="evenodd" d="M109.912 52.846L81.281 81.28V22.333c.834 0 1.668.22 2.415.658 9.358 5.49 17.206 13.384 22.697 22.83a63.404 63.404 0 013.519 7.025z" fill="#ECF6FE"/><defs><linearGradient id="paint0_linear" x1="52.021" y1="53.304" x2="52.021" y2="140.228" gradientUnits="userSpaceOnUse"><stop stop-color="#13BDFF"/><stop offset="1" stop-color="#3F83FF"/></linearGradient><linearGradient id="paint1_linear" x1="73.448" y1="48.761" x2="73.448" y2="135.175" gradientUnits="userSpaceOnUse"><stop stop-color="#D8EDFF"/><stop offset="1" stop-color="#8DC9FF"/></linearGradient></defs></svg>
